X: 21493
T: MRS. PARKER'S REEL
R: reel
B: K\"ohler's Violin Repository, v.2, 1885 p.149 #3
F: http://www.archive.org/details/klersviolinrepos02rugg
Z: 2012 John Chambers <jc:trillian.mit.edu>
M: C|
L: 1/8
K: A
ud | (cA)AB (Ac)BA | (BA)Bc (ed)Bd | (cA)AB (Ac)BA | (BF)FG A2A :|
ud | (cA)ec (ae)fe | (dc)Bc (df)ed | (cA)ec (ag)fe | (fe)fg e2e ||
 g | (ag)fe (fe)dc | (BA)Bc (dB)ed | (cA)df (ec)af | (ec)dB "_D.C. Fine."A2A |]

%%sep 2 1 500

